media/img/products/vpn/resource-center/moz_resource_center_header_bg.svg

<svg width="1148" height="286" viewBox="0 0 1148 286" fill="none" xmlns="http://www.w3.org/2000/svg">
<path d="M382.194 285.395H181.109C184.499 266.032 201.448 251.267 221.786 251.267C222.271 251.267 222.876 251.267 223.36 251.267C233.529 233.115 253.021 220.892 275.296 220.892C302.293 220.892 325.053 238.802 332.316 263.369C337.643 258.529 344.665 255.503 352.534 255.503C368.877 255.624 382.194 268.936 382.194 285.395Z" fill="#C2C4FF" stroke="#C0C5FF" stroke-miterlimit="10"/>
<path d="M0 174.057H145.154C142.733 160.14 130.505 149.49 115.736 149.49C115.373 149.49 115.009 149.49 114.646 149.49C107.261 136.541 93.2181 127.707 77.2379 127.707C57.7468 127.707 41.4034 140.656 36.0766 158.325C32.2026 154.815 27.118 152.637 21.5491 152.637C9.56394 152.637 0 162.319 0 174.057Z" fill="#E9E9E9"/>
<path d="M1130 63H946C949.12 46.4198 964.632 33.8509 983.264 33.8509C983.709 33.8509 984.244 33.8509 984.69 33.8509C994.05 18.4295 1011.79 8 1032.21 8C1056.9 8 1077.67 23.3323 1084.36 44.2804C1089.17 40.0908 1095.68 37.5948 1102.81 37.5948C1117.88 37.5948 1130 48.9157 1130 63Z" fill="#E9E9E9"/>
<path d="M1146.91 239H995.906C998.452 224.291 1011.18 213.075 1026.45 213.075C1026.82 213.075 1027.27 213.075 1027.63 213.075C1035.27 199.285 1049.91 190 1066.63 190C1086.91 190 1104 203.606 1109.45 222.268C1113.45 218.591 1118.72 216.293 1124.63 216.293C1136.91 216.385 1146.91 226.497 1146.91 239Z" fill="#C2C4FF" stroke="#C0C5FF" stroke-miterlimit="10"/>
<g clip-path="url(#clip0)">
<path d="M123.2 82.8H121.7C121.7 83.9 121.3 84.8 120.6 85.5C119.9 86.2 118.9 86.6 117.9 86.6C116.8 86.6 115.9 86.2 115.2 85.5C114.4 84.8 113.9 83.9 113.9 82.8C113.9 81.7 114.3 80.8 115 80.1C115.7 79.4 116.7 79 117.7 79C118.8 79 119.7 79.4 120.4 80.1C121.1 80.8 121.5 81.8 121.5 82.8H123.2H124.7C124.7 79 121.7 76 117.9 76C114 76 111 79 111 82.8C111 86.6 114 89.6 117.8 89.6C121.6 89.6 124.6 86.6 124.6 82.8H123.2Z" fill="black"/>
</g>
<g clip-path="url(#clip1)">
<path d="M953.6 14.4C952.9 14.4 952.4 13.8 952.4 13.2V2.00005C952.4 1.30005 953 0.800049 953.6 0.800049C954.3 0.800049 954.8 1.40005 954.8 2.00005V13.2C954.8 13.9 954.3 14.4 953.6 14.4Z" fill="black"/>
<path d="M960.4 7.60005C960.4 8.30005 959.8 8.80005 959.2 8.80005H948C947.3 8.80005 946.8 8.20005 946.8 7.60005C946.8 7.00005 947.3 6.30005 948 6.30005H959.2C959.9 6.30005 960.4 6.90005 960.4 7.60005Z" fill="black"/>
<path d="M953.6 14.4V13.7C953.3 13.7 953.1 13.5 953.1 13.2V2C953.1 1.7 953.3 1.5 953.6 1.5C953.9 1.5 954.1 1.7 954.1 2V13.2C954.1 13.5 953.9 13.7 953.6 13.7V14.4V15.1C954.7 15.1 955.6 14.2 955.6 13.1V2C955.6 0.9 954.7 0 953.6 0C952.5 0 951.6 0.9 951.6 2V13.2C951.6 14.3 952.5 15.2 953.6 15.2V14.4Z" fill="black"/>
<path d="M960.4 7.6001H959.7C959.7 7.9001 959.5 8.1001 959.2 8.1001H948C947.7 8.1001 947.5 7.9001 947.5 7.6001C947.5 7.3001 947.7 7.1001 948 7.1001H959.2C959.5 7.1001 959.7 7.3001 959.7 7.6001H960.4H961.1C961.1 6.5001 960.2 5.6001 959.1 5.6001H948C946.9 5.6001 946 6.5001 946 7.6001C946 8.7001 946.9 9.6001 948 9.6001H959.2C960.3 9.6001 961.2 8.7001 961.2 7.6001H960.4Z" fill="black"/>
</g>
<defs>
<clipPath id="clip0">
<rect width="13.6" height="13.6" fill="white" transform="translate(111 76)"/>
</clipPath>
<clipPath id="clip1">
<rect width="15.1" height="15.1" fill="white" transform="translate(946)"/>
</clipPath>
</defs>
</svg>

<svg width="1148" height="286" fill="none" xmlns="http://www.w3.org/2000/svg"><path d="M382.194 285.395H181.109c3.39-19.363 20.339-34.128 40.677-34.128h1.574c10.169-18.152 29.661-30.375 51.936-30.375 26.997 0 49.757 17.91 57.02 42.477 5.327-4.84 12.349-7.866 20.218-7.866 16.343.121 29.66 13.433 29.66 29.892Z" fill="#C2C4FF" stroke="#C0C5FF" stroke-miterlimit="10"/><path d="M0 174.057h145.154c-2.421-13.917-14.649-24.567-29.418-24.567h-1.09c-7.385-12.949-21.428-21.783-37.408-21.783-19.491 0-35.835 12.949-41.161 30.618-3.874-3.51-8.959-5.688-14.528-5.688C9.564 152.637 0 162.319 0 174.057ZM1130 63H946c3.12-16.58 18.632-29.15 37.264-29.15h1.426C994.05 18.43 1011.79 8 1032.21 8c24.69 0 45.46 15.332 52.15 36.28 4.81-4.19 11.32-6.685 18.45-6.685 15.07 0 27.19 11.32 27.19 25.405Z" fill="#E9E9E9"/><path d="M1146.91 239H995.906c2.546-14.709 15.274-25.925 30.544-25.925h1.18c7.64-13.79 22.28-23.075 39-23.075 20.28 0 37.37 13.606 42.82 32.268 4-3.677 9.27-5.975 15.18-5.975 12.28.092 22.28 10.204 22.28 22.707Z" fill="#C2C4FF" stroke="#C0C5FF" stroke-miterlimit="10"/><g clip-path="url(#a)"><path d="M123.2 82.8h-1.5c0 1.1-.4 2-1.1 2.7-.7.7-1.7 1.1-2.7 1.1-1.1 0-2-.4-2.7-1.1-.8-.7-1.3-1.6-1.3-2.7s.4-2 1.1-2.7c.7-.7 1.7-1.1 2.7-1.1 1.1 0 2 .4 2.7 1.1.7.7 1.1 1.7 1.1 2.7h3.2c0-3.8-3-6.8-6.8-6.8-3.9 0-6.9 3-6.9 6.8s3 6.8 6.8 6.8 6.8-3 6.8-6.8h-1.4Z" fill="#000"/></g><g clip-path="url(#b)" fill="#000"><path d="M953.6 14.4c-.7 0-1.2-.6-1.2-1.2V2c0-.7.6-1.2 1.2-1.2.7 0 1.2.6 1.2 1.2v11.2c0 .7-.5 1.2-1.2 1.2Z"/><path d="M960.4 7.6c0 .7-.6 1.2-1.2 1.2H948c-.7 0-1.2-.6-1.2-1.2s.5-1.3 1.2-1.3h11.2c.7 0 1.2.6 1.2 1.3Z"/><path d="M953.6 14.4v-.7c-.3 0-.5-.2-.5-.5V2c0-.3.2-.5.5-.5s.5.2.5.5v11.2c0 .3-.2.5-.5.5v1.4c1.1 0 2-.9 2-2V2c0-1.1-.9-2-2-2s-2 .9-2 2v11.2c0 1.1.9 2 2 2v-.8Z"/><path d="M960.4 7.6h-.7c0 .3-.2.5-.5.5H948c-.3 0-.5-.2-.5-.5s.2-.5.5-.5h11.2c.3 0 .5.2.5.5h1.4c0-1.1-.9-2-2-2H948c-1.1 0-2 .9-2 2s.9 2 2 2h11.2c1.1 0 2-.9 2-2h-.8Z"/></g><defs><clipPath id="a"><path fill="#fff" transform="translate(111 76)" d="M0 0h13.6v13.6H0z"/></clipPath><clipPath id="b"><path fill="#fff" transform="translate(946)" d="M0 0h15.1v15.1H0z"/></clipPath></defs></svg>
